src/xmb/flatui/menu_notifications.svg

<?xml version="1.0" encoding="UTF-8" standalone="no"?>
<svg
   xmlns:dc="http://purl.org/dc/elements/1.1/"
   xmlns:cc="http://creativecommons.org/ns#"
   xmlns:rdf="http://www.w3.org/1999/02/22-rdf-syntax-ns#"
   xmlns:svg="http://www.w3.org/2000/svg"
   xmlns="http://www.w3.org/2000/svg"
   xmlns:sodipodi="http://sodipodi.sourceforge.net/DTD/sodipodi-0.dtd"
   xmlns:inkscape="http://www.inkscape.org/namespaces/inkscape"
   version="1.1"
   id="Calque_1"
   x="0px"
   y="0px"
   width="64px"
   height="64px"
   viewBox="0 0 64 64"
   enable-background="new 0 0 64 64"
   xml:space="preserve"
   inkscape:version="0.92.3 (2405546, 2018-03-11)"
   sodipodi:docname="menu_notifications.svg"
   inkscape:export-filename="/media/alfrix/DATOS/xmb/menu_osd.png"
   inkscape:export-xdpi="90"
   inkscape:export-ydpi="90"><metadata
     id="metadata8"><rdf:RDF><cc:Work
         rdf:about=""><dc:format>image/svg+xml</dc:format><dc:type
           rdf:resource="http://purl.org/dc/dcmitype/StillImage" /><dc:title /></cc:Work></rdf:RDF></metadata><defs
     id="defs6"><pattern
       y="0"
       x="0"
       height="6"
       width="6"
       patternUnits="userSpaceOnUse"
       id="EMFhbasepattern" /></defs><sodipodi:namedview
     pagecolor="#ffffff"
     bordercolor="#666666"
     borderopacity="1"
     objecttolerance="10"
     gridtolerance="10"
     guidetolerance="10"
     inkscape:pageopacity="0"
     inkscape:pageshadow="2"
     inkscape:window-width="1024"
     inkscape:window-height="705"
     id="namedview4"
     showgrid="true"
     inkscape:zoom="7.375"
     inkscape:cx="27.989426"
     inkscape:cy="35.626327"
     inkscape:window-x="-8"
     inkscape:window-y="-8"
     inkscape:window-maximized="1"
     inkscape:current-layer="Calque_1"
     inkscape:snap-bbox="false"
     inkscape:snap-midpoints="true"
     inkscape:snap-smooth-nodes="true"
     inkscape:object-nodes="true"
     inkscape:snap-intersection-paths="true"
     inkscape:object-paths="true"><inkscape:grid
       type="xygrid"
       id="grid2985"
       empspacing="4"
       visible="true"
       enabled="true"
       snapvisiblegridlinesonly="true" /></sodipodi:namedview><path
     id="path820"
     d="M 48.999873,36.199969 H 14.840127 V 18.040103 h 34.159746 z"
     style="fill:#3498db;fill-opacity:1;fill-rule:nonzero;stroke:none"
     inkscape:connector-curvature="0" /><path
     id="path822"
     d="M 15.000126,40.999933 H 48.999873 V 33.31999 l -10.239924,-6.559951 -10.159925,6.559951 -5.119962,-3.279976 -8.479936,5.51996 z"
     style="fill:#1abc9c;fill-opacity:1;fill-rule:nonzero;stroke:none"
     inkscape:connector-curvature="0" /><path
     id="path826"
     d="M 24.040058,45.999889 H 40.03994 v 1 H 24.040058 Z"
     style="fill:#e6e6e6;fill-opacity:1;fill-rule:nonzero;stroke:#2c3e50;stroke-width:1;stroke-miterlimit:4;stroke-dasharray:none;stroke-opacity:1"
     inkscape:connector-curvature="0" /><path
     style="color:#000000;font-style:normal;font-variant:normal;font-weight:normal;font-stretch:normal;font-size:medium;line-height:normal;font-family:sans-serif;font-variant-ligatures:normal;font-variant-position:normal;font-variant-caps:normal;font-variant-numeric:normal;font-variant-alternates:normal;font-feature-settings:normal;text-indent:0;text-align:start;text-decoration:none;text-decoration-line:none;text-decoration-style:solid;text-decoration-color:#000000;letter-spacing:normal;word-spacing:normal;text-transform:none;writing-mode:lr-tb;direction:ltr;text-orientation:mixed;dominant-baseline:auto;baseline-shift:baseline;text-anchor:start;white-space:normal;shape-padding:0;clip-rule:nonzero;display:inline;overflow:visible;visibility:visible;opacity:1;isolation:auto;mix-blend-mode:normal;color-interpolation:sRGB;color-interpolation-filters:linearRGB;solid-color:#000000;solid-opacity:1;vector-effect:none;fill:#ecf0f1;fill-opacity:1;fill-rule:nonzero;stroke:#2c3e50;stroke-width:1;stroke-linecap:butt;stroke-linejoin:miter;stroke-miterlimit:4;stroke-dasharray:none;stroke-dashoffset:0;stroke-opacity:1;color-rendering:auto;image-rendering:auto;shape-rendering:auto;text-rendering:auto;enable-background:accumulate"
     d="m 30,42 v 1 3 h 4 v -4 z"
     id="path828"
     inkscape:connector-curvature="0" /><path
     id="path838"
     d="m 18,39 v 1 h 13.999896 v -1 z"
     style="fill:#f1c40f;fill-opacity:1;fill-rule:nonzero;stroke:none;stroke-width:0.9805854"
     inkscape:connector-curvature="0"
     sodipodi:nodetypes="ccccc" /><path
     id="path848"
     d="m 13.00014,17.000111 v 0.959993 25.039814 H 50.999859 V 17.000111 Z m 1.999986,1.999985 H 48.999873 V 40.999933 H 15.000126 Z"
     style="fill:#ecf0f1;fill-opacity:1;fill-rule:nonzero;stroke:#2c3e50;stroke-width:1;stroke-miterlimit:4;stroke-dasharray:none;stroke-opacity:1"
     inkscape:connector-curvature="0" /></svg>

<svg xmlns="http://www.w3.org/2000/svg" xml:space="preserve" width="64" height="64"><path d="M49 36.2H14.84V18.04H49z" style="fill:#3498db;fill-opacity:1;fill-rule:nonzero;stroke:none"/><path d="M15 41h34v-7.68l-10.24-6.56-10.16 6.56-5.12-3.28L15 35.56z" style="fill:#1abc9c;fill-opacity:1;fill-rule:nonzero;stroke:none"/><path d="M24.04 46h16v1h-16Z" style="fill:#e6e6e6;fill-opacity:1;fill-rule:nonzero;stroke:#2c3e50;stroke-width:1;stroke-miterlimit:4;stroke-dasharray:none;stroke-opacity:1"/><path d="M30 42v4h4v-4z" style="color:#000;font-style:normal;font-variant:normal;font-weight:400;font-stretch:normal;font-size:medium;line-height:normal;font-family:sans-serif;font-variant-ligatures:normal;font-variant-position:normal;font-variant-caps:normal;font-variant-numeric:normal;font-variant-alternates:normal;font-feature-settings:normal;text-indent:0;text-align:start;text-decoration:none;text-decoration-line:none;text-decoration-style:solid;text-decoration-color:#000;letter-spacing:normal;word-spacing:normal;text-transform:none;writing-mode:lr-tb;direction:ltr;text-orientation:mixed;dominant-baseline:auto;baseline-shift:baseline;text-anchor:start;white-space:normal;shape-padding:0;clip-rule:nonzero;display:inline;overflow:visible;visibility:visible;opacity:1;isolation:auto;mix-blend-mode:normal;color-interpolation:sRGB;color-interpolation-filters:linearRGB;solid-color:#000;solid-opacity:1;vector-effect:none;fill:#ecf0f1;fill-opacity:1;fill-rule:nonzero;stroke:#2c3e50;stroke-width:1;stroke-linecap:butt;stroke-linejoin:miter;stroke-miterlimit:4;stroke-dasharray:none;stroke-dashoffset:0;stroke-opacity:1;color-rendering:auto;image-rendering:auto;shape-rendering:auto;text-rendering:auto"/><path d="M18 39v1h14v-1z" style="fill:#f1c40f;fill-opacity:1;fill-rule:nonzero;stroke:none;stroke-width:.9805854"/><path d="M13 17v26h38V17Zm2 2h34v22H15Z" style="fill:#ecf0f1;fill-opacity:1;fill-rule:nonzero;stroke:#2c3e50;stroke-width:1;stroke-miterlimit:4;stroke-dasharray:none;stroke-opacity:1"/></svg>
